X:273
T:O'Rourke's
Z: id:dc-reel-366
M:C
L:1/8
K:A Mixolydian
ed|cAeA fAeA|cAec dfed|cAA2 fdd2|fage d2:|!
ef|g2fg e3f|gfed eaa2|gefd edcd|eage d2ef|!
g2fg e3f|gfed eaa2|bgaf gfed|eaag ag|]!